icons/Amazon.svg

<svg width="16" height="16" viewBox="0 0 16 16" fill="none" xmlns="http://www.w3.org/2000/svg">
<g clip-path="url(#clip0_2179_3626)">
<path d="M13.7728 12.9174C7.29649 15.9998 3.27724 13.4209 0.704394 11.8545C0.545187 11.7558 0.274591 11.8776 0.50937 12.1472C1.36651 13.1866 4.17556 15.6919 7.84217 15.6919C11.5113 15.6919 13.6941 13.6896 13.9672 13.3404C14.2384 12.9941 14.0469 12.803 13.7728 12.9174ZM15.5916 11.9129C15.4177 11.6864 14.5341 11.6442 13.978 11.7125C13.4211 11.7788 12.5851 12.1192 12.6578 12.3236C12.6951 12.4002 12.7712 12.3659 13.1538 12.3315C13.5374 12.2932 14.6122 12.1575 14.8361 12.4503C15.0611 12.7451 14.4933 14.1495 14.3896 14.3759C14.2895 14.6024 14.4279 14.6608 14.6161 14.51C14.8017 14.3592 15.1377 13.9687 15.3632 13.4161C15.5872 12.8604 15.7238 12.0853 15.5916 11.9129Z" fill="#FF00FF"/>
<path fill-rule="evenodd" clip-rule="evenodd" d="M9.41907 6.62789C9.41907 7.43666 9.4395 8.11113 9.03071 8.82936C8.70076 9.41336 8.17812 9.77247 7.59417 9.77247C6.79703 9.77247 6.33279 9.16515 6.33279 8.26881C6.33279 6.49939 7.91821 6.17825 9.41907 6.17825V6.62789ZM11.5125 11.6879C11.3753 11.8105 11.1768 11.8193 11.022 11.7375C10.333 11.1652 10.2103 10.8995 9.83074 10.3535C8.69202 11.5156 7.88614 11.863 6.40874 11.863C4.66268 11.863 3.30203 10.7856 3.30203 8.62792C3.30203 6.94325 4.21598 5.79575 5.51522 5.23519C6.6423 4.73877 8.21609 4.6512 9.41907 4.51401V4.24537C9.41907 3.7519 9.45698 3.16796 9.16796 2.7417C8.9139 2.3592 8.42922 2.20152 8.0029 2.20152C7.21166 2.20152 6.50506 2.60735 6.33279 3.44824C6.29771 3.63515 6.16052 3.81911 5.97367 3.82785L3.95897 3.61182C3.78966 3.57379 3.6028 3.43661 3.64952 3.1767C4.11376 0.735831 6.31814 0 8.29191 0C9.30219 0 10.6219 0.268643 11.4191 1.03365C12.4293 1.9767 12.333 3.23511 12.333 4.60448V7.83959C12.333 8.81188 12.7359 9.23814 13.1154 9.76373C13.2497 9.95058 13.279 10.1755 13.1096 10.3155C12.6862 10.6688 11.9329 11.3258 11.5183 11.6937L11.5125 11.6879Z" fill="#FF00FF"/>
</g>
<defs>
<clipPath id="clip0_2179_3626">
<rect width="16" height="16" fill="white"/>
</clipPath>
</defs>
</svg>

<svg width="16" height="16" fill="none" xmlns="http://www.w3.org/2000/svg"><g clip-path="url(#a)" fill="#F0F"><path d="M13.773 12.917C7.296 16 3.277 13.421.704 11.854c-.159-.098-.43.024-.195.293.858 1.04 3.667 3.545 7.333 3.545 3.67 0 5.852-2.002 6.125-2.352.271-.346.08-.537-.194-.423zm1.819-1.004c-.174-.227-1.058-.269-1.614-.2-.557.066-1.393.406-1.32.61.037.077.113.043.496.008.383-.038 1.458-.173 1.682.12.225.294-.343 1.698-.446 1.925-.1.226.038.285.226.134.186-.15.522-.541.747-1.094.224-.556.36-1.33.229-1.503z"/><path fill-rule="evenodd" clip-rule="evenodd" d="M9.42 6.628c0 .809.02 1.483-.39 2.201-.33.584-.852.943-1.436.943-.797 0-1.261-.607-1.261-1.503 0-1.77 1.585-2.09 3.086-2.09v.449zm2.092 5.06a.433.433 0 0 1-.49.05c-.689-.573-.812-.838-1.191-1.384-1.139 1.162-1.945 1.509-3.422 1.509-1.746 0-3.107-1.077-3.107-3.235 0-1.685.914-2.832 2.213-3.393 1.127-.496 2.701-.584 3.904-.721v-.269c0-.493.038-1.077-.251-1.503-.254-.383-.739-.54-1.165-.54-.791 0-1.498.405-1.67 1.246-.035.187-.172.371-.36.38L3.96 3.612c-.17-.038-.356-.175-.31-.435C4.115.736 6.32 0 8.293 0c1.01 0 2.33.269 3.127 1.034 1.01.943.914 2.201.914 3.57V7.84c0 .972.403 1.398.782 1.924.135.187.164.412-.005.552a87.947 87.947 0 0 0-1.592 1.378l-.006-.006z"/></g><defs><clipPath id="a"><path fill="#fff" d="M0 0h16v16H0z"/></clipPath></defs></svg>
